X:307
T: Gongzhandang bi nianglaozi qin
N: C1804
O: China, Gansu Linxia
S: I, 108]
N: Han Hui 
R: Shange, Huar, Garjieling]
M: 3/4
L: 1/16
K: Bb
f2fdd8 | f3gb2cd | c8 | d2d2f2fg | b2cbg4z4
f2fdd8 | f3gd2df | d2cbfgb6 | d2cbcbg2 | f8 | d4z4

